X:222
T: IN DES GARTENS DUNKLER LAUBE
N: E0112C
O: Europa, Mitteleuropa, Deutschland, Wetterau
R: erzaehlendes Volks - Lied, Sage, Liebe, Leid, Tod
M: 3/4
L: 1/8
K: Bb
DE | FBB2DE | FBB2
dd | c3FGF | D2z2
FF | edcBAG | G2F2
FA | Bdf2ec | B2z2
FF | edcBAG | G2F2
FA | Bdf2ec | B2z2

@@@ Tune index: 3872
